public/assets/images/logo-twitter2.svg

<svg xmlns="http://www.w3.org/2000/svg" width="60" height="60" viewBox="0 0 60 60">
  <path fill="#6534FF" fill-rule="evenodd" d="M45.4176383,24.223807 C45.4319362,24.5376677 45.4383404,24.8531987 45.4383404,25.1702481 C45.4383404,34.8438996 38.215383,46 25.0071277,46 C20.9512979,46 17.178,44.7881363 14,42.7116752 C14.5619362,42.7792456 15.1335532,42.8131067 15.7129149,42.8131067 C19.077383,42.8131067 22.1733191,41.643 24.6315106,39.6792069 C21.4880638,39.6196842 18.8372979,37.5029845 17.9232766,34.5944205 C18.3605532,34.6797566 18.8104894,34.7265245 19.2730851,34.7265245 C19.9282553,34.7265245 20.5630213,34.6361775 21.1660638,34.4689977 C17.8805319,33.7976972 15.4050638,30.8376583 15.4050638,27.2916549 C15.4050638,27.2596159 15.4050638,27.2289435 15.4067021,27.1982711 C16.3744894,27.7471857 17.481234,28.0771418 18.6588723,28.1141916 C16.7313404,26.8024148 15.4634468,24.5602924 15.4634468,22.0202528 C15.4634468,20.6794739 15.8186596,19.4223608 16.436,18.3407789 C19.9772553,22.7703601 25.2692553,25.6837831 31.2371277,25.9895961 C31.1139574,25.4535882 31.0508085,24.8949557 31.0508085,24.3203795 C31.0508085,20.2787587 34.2667872,17 38.2326596,17 C40.2976596,17 42.1638298,17.8899553 43.4741702,19.3128816 C45.1099362,18.9845957 46.6459149,18.3744882 48.0337021,17.5360079 C47.4969362,19.2453112 46.358617,20.6794739 44.8761064,21.5856764 C46.3286809,21.4086268 47.7131915,21.0159593 49,20.4331836 C48.0384681,21.9012074 46.8195745,23.1905113 45.4176383,24.223807 M30,0 C13.43145,0 0,13.43145 0,30 C0,46.56855 13.43145,60 30,60 C46.56855,60 60,46.56855 60,30 C60,13.43145 46.56855,0 30,0"/>
</svg>

<svg xmlns="http://www.w3.org/2000/svg" width="60" height="60"><path fill="#6534FF" fill-rule="evenodd" d="M45.418 24.224c.014.314.02.63.02.946 0 9.674-7.223 20.83-20.43 20.83-4.057 0-7.83-1.212-11.008-3.288.562.067 1.134.101 1.713.101 3.364 0 6.46-1.17 8.919-3.134-3.144-.06-5.795-2.176-6.709-5.085a7.031 7.031 0 0 0 3.243-.125c-3.285-.671-5.76-3.631-5.76-7.177v-.094a7.025 7.025 0 0 0 3.253.916 7.354 7.354 0 0 1-3.196-6.094c0-1.34.356-2.598.973-3.68 3.541 4.43 8.833 7.344 14.801 7.65a7.445 7.445 0 0 1-.186-1.67c0-4.041 3.216-7.32 7.182-7.32a7.11 7.11 0 0 1 5.241 2.313 14.223 14.223 0 0 0 4.56-1.777 7.323 7.323 0 0 1-3.158 4.05A14.118 14.118 0 0 0 49 20.433a14.772 14.772 0 0 1-3.582 3.79M30 0C13.431 0 0 13.431 0 30c0 16.569 13.431 30 30 30 16.569 0 30-13.431 30-30C60 13.431 46.569 0 30 0"/></svg>
